!!!OTL: Yidui xiaoyiangqÅe
!!!ARE: Asia, China,ˇAnhui Guangde
!! III, 529
!!!SCT: C2041
!!!YEM: Copyright 1995, estate of Helmut Schaffrath.
**kern
*ICvox
*Ivox
!! Mixed meters:  2/4; 3/4
*M3/4
*k[]
*C:
{8e
16e
16d
8e
8c
=1
2d
=2
16d
16e
16d
16c
2c}
=3
*M2/4
{8c
8c
8c
8c
=4
2d
=5
*M3/4
16d
16e
16d
16c
2c}
=6
*M2/4
{8c
16d
16e
8c
16d
16e
=7
16d
16c
16c
16A
4G}
=8
{8d
8e
8d
8e
=9
*M3/4
16d
16e
16d
16c
16d
16e
16d
16c
4A
=10
*M2/4
8c
16d
16e
8d
8c
=11
16A
16G
16c
16A
4G}
=12
{16d
16d
16e
16d
4c
=13
8d
16e
16d
4c}
=14
{8e
16e
16d
8c
8c
=15
2d
=16
*M3/4
16d
16e
16d
16c
2c}
=17
*M2/4
{8c
16d
16e
16d
16c
16c
16A
=18
4.G
8A
=19
4G
4r}
==
!!!AGN: Haozi
!!!AMT: irregular
!!!AIN: vox
!!!EED: Helmut Schaffrath
!!!EEV: 1.0
*-
